polaris-icons/icons/newicons/CollectionsMajor.svg

<svg width="20" height="20" viewBox="0 0 20 20" fill="none" xmlns="http://www.w3.org/2000/svg">
<path d="M12.5 6.5C13.0523 6.5 13.5 6.05228 13.5 5.5C13.5 4.94772 13.0523 4.5 12.5 4.5C11.9477 4.5 11.5 4.94772 11.5 5.5C11.5 6.05228 11.9477 6.5 12.5 6.5Z" fill="black"/>
<path fill-rule="evenodd" clip-rule="evenodd" d="M8.51692 3.09835C9.22018 2.39509 10.174 2 11.1686 2H12.75C14.5449 2 16 3.45508 16 5.25V7.03854C16 7.37382 15.9482 7.70376 15.849 8.01765C15.9471 8.32747 16 8.65738 16 8.99964V10.7882C16 11.6501 15.6576 12.4768 15.0481 13.0863L10.8418 17.2925C9.86553 18.2688 8.28262 18.2688 7.30631 17.2925L4.63389 14.6201C3.58289 13.5691 3.56043 11.8791 4.56653 10.8007C3.56044 9.72244 3.58289 8.03238 4.63389 6.98138L8.51692 3.09835ZM10.8418 13.5429L14.5 9.88473V10.7882C14.5 11.2523 14.3156 11.6974 13.9874 12.0256L9.78118 16.2319C9.39066 16.6224 8.75749 16.6224 8.36697 16.2319L5.69455 13.5595C5.22986 13.0948 5.20752 12.3552 5.62753 11.8641L7.30631 13.5429C8.28262 14.5192 9.86553 14.5192 10.8418 13.5429ZM11.1686 3.5C10.5718 3.5 9.99954 3.73705 9.57758 4.15901L5.69455 8.04204C5.20639 8.5302 5.20639 9.32165 5.69455 9.80981L8.36697 12.4822C8.75749 12.8728 9.39066 12.8728 9.78118 12.4822L13.9874 8.27598C14.3156 7.94779 14.5 7.50267 14.5 7.03854V5.25C14.5 4.2835 13.7165 3.5 12.75 3.5H11.1686Z" fill="black"/>
</svg>

<svg viewBox="0 0 20 20" fill="none" xmlns="http://www.w3.org/2000/svg"><path d="M12.5 6.5a1 1 0 1 0 0-2 1 1 0 0 0 0 2Z" fill="#5C5F62"/><path fill-rule="evenodd" clip-rule="evenodd" d="M8.517 3.098a3.75 3.75 0 0 1 2.652-1.098h1.581a3.25 3.25 0 0 1 3.25 3.25v1.789c0 .335-.052.665-.151.979.098.31.151.64.151.982v1.788a3.25 3.25 0 0 1-.952 2.298l-4.206 4.207a2.5 2.5 0 0 1-3.536 0l-2.672-2.673a2.75 2.75 0 0 1-.067-3.82 2.75 2.75 0 0 1 .067-3.819l3.883-3.883Zm2.325 10.445 3.658-3.658v.903c0 .464-.184.91-.513 1.238l-4.206 4.206a1 1 0 0 1-1.414 0l-2.672-2.672a1.25 1.25 0 0 1-.067-1.696l1.678 1.679a2.5 2.5 0 0 0 3.536 0Zm.327-10.043a2.25 2.25 0 0 0-1.591.659l-3.883 3.883a1.25 1.25 0 0 0 0 1.768l2.672 2.672a1 1 0 0 0 1.414 0l4.206-4.206a1.75 1.75 0 0 0 .513-1.237v-1.789a1.75 1.75 0 0 0-1.75-1.75h-1.581Z" fill="#5C5F62"/></svg>
